X:959
T:Solomon Levi
C:Traditional American
S:Colin Hume's website,  colinhume.com  - chords can also be printed below the stave.
Q:3/8=112
M:6/8
R:Jig
K:C
z2E | "C"G2G G2G | G2G G2G | "F"A2A A2A | A3 -A2A |
"G"B2B B2B | B2B B2A | [1"C"A2G G2A | G3 :|[2"G"G2G A2B | "C"c3- c3 |
"E7"e3 Bcd | "Am"c3 A3 | "E7"efe dcB | "Am"A6 |\
"D7"d3 ABc | "G"B3 G3 | "D7"ded cBA | "G7"G3 z2E |
"C"G2G G2G | G2G G2G | "F"A2A A2A | A3 -A2A |\
"G"B2B B2B | B2B B2A | "G"G2G A2B | "C"c3 |]

